assets/icons/zoid.svg

<svg width="24" height="25" viewBox="0 0 24 25" fill="none" xmlns="http://www.w3.org/2000/svg">
<g clip-path="url(#clip0_1_215)">
<mask id="mask0_1_215" style="mask-type:luminance" maskUnits="userSpaceOnUse" x="0" y="0" width="24" height="25">
<path d="M24 0.666382H1.52588e-05V24.6664H24V0.666382Z" fill="white"/>
</mask>
<g mask="url(#mask0_1_215)">
<path opacity="0.4" d="M9.39422 23.8064C9.02595 23.7861 8.48715 23.7448 7.92102 23.5696C7.35408 23.3999 6.81308 23.04 6.69815 22.5496C6.55586 22.0694 6.71568 21.4336 6.99648 20.8261L7.23235 20.3459C7.33735 20.1098 7.42868 19.8588 7.47742 19.5924C7.58262 19.051 7.54242 18.4952 7.36022 17.9703C7.14495 17.3658 6.79648 16.8055 6.33518 16.3219C6.18375 15.5366 5.60161 14.7378 4.68084 14.1878C3.1262 13.2571 1.19792 13.3863 0.372275 14.4753C-0.452609 15.5636 0.13942 17.2006 1.69331 18.132C2.59048 18.6684 3.6117 18.8517 4.47386 18.7029C4.57812 18.7786 4.67248 18.8584 4.75162 18.9437C4.89163 19.0878 4.99056 19.246 5.04458 19.4598C5.0735 19.5646 5.07959 19.6837 5.07731 19.8122L5.00045 20.4311C4.95286 20.8747 4.96078 21.3216 5.02404 21.7636C5.09938 22.2121 5.24852 22.6741 5.54226 23.0684C5.81248 23.44 6.2 23.7324 6.6563 23.9092C7.06722 24.0641 7.46062 24.1155 7.80762 24.1311C8.50542 24.1507 9.04268 24.0411 9.41175 23.964C9.78155 23.8815 9.98475 23.8213 9.98475 23.8213C9.98475 23.8213 9.76715 23.8246 9.39422 23.8064Z" fill="white"/>
<path opacity="0.6" d="M23.4111 15.0159C23.0443 14.9807 22.5078 14.9185 21.9508 14.721C21.3937 14.5283 20.8717 14.1474 20.7804 13.6543C20.6625 13.1687 20.8543 12.5383 21.1639 11.9443L21.4242 11.4736C21.5484 11.2354 21.6431 10.9859 21.7065 10.7295C21.8385 10.1931 21.8259 9.63667 21.67 9.10547C21.4861 8.49327 21.1663 7.91994 20.7295 7.41914C20.6168 6.62776 20.075 5.8066 19.1839 5.22082C17.678 4.23056 15.7436 4.28196 14.8655 5.33852C13.9865 6.39304 14.4964 8.05227 16.0016 9.04254C16.8721 9.6148 17.8835 9.83867 18.7509 9.72367C18.8506 9.80354 18.9412 9.88807 19.0165 9.97534C19.1489 10.1255 19.241 10.2885 19.2836 10.5023C19.3079 10.6085 19.3079 10.7275 19.2996 10.8553L19.1908 11.4709C19.1209 11.9118 19.1065 12.3583 19.1481 12.8021C19.1991 13.2532 19.3247 13.7199 19.5994 14.1258C19.8503 14.5077 20.2229 14.8151 20.6701 15.0092C21.0281 15.1596 21.4143 15.2501 21.8093 15.2763C22.5055 15.3244 23.0473 15.2365 23.4202 15.1749C23.7923 15.1066 24.0001 15.0538 24.0001 15.0538C24.0001 15.0538 23.7832 15.0484 23.4111 15.0159Z" fill="white"/>
<path d="M15.1226 19.6074C14.6569 19.5032 14.1752 19.3395 13.7689 19.0872C13.3626 18.8408 13.0494 18.4912 12.8701 18.0841C12.5057 17.2697 12.6525 16.18 12.9972 15.1465L13.2909 14.3381C13.4249 13.9679 13.5144 13.5861 13.5581 13.1991C13.6433 12.4001 13.5163 11.5945 13.1875 10.8472C12.9015 10.1981 12.5004 9.59386 11.9996 9.05739C12.0658 7.52126 10.9655 5.83766 9.04935 4.82372C6.48264 3.46617 3.42585 3.82331 2.222 5.62054C1.0174 7.41846 2.12155 9.97459 4.68752 11.3329C6.41034 12.2453 8.35155 12.384 9.80728 11.8334C9.92675 11.9389 10.0371 12.0505 10.1345 12.1682C10.3841 12.4571 10.5515 12.7865 10.6306 13.1842C10.6747 13.3817 10.6785 13.5981 10.6694 13.8234C10.6367 14.1433 10.6009 14.4213 10.5759 14.7893C10.5317 15.4664 10.5454 16.1415 10.6747 16.8253C10.8117 17.5051 11.0613 18.1943 11.5225 18.77C11.9491 19.3164 12.5476 19.7387 13.243 19.9841C13.8761 20.206 14.4849 20.2723 15.0275 20.2825C16.1149 20.2912 16.9603 20.1045 17.5432 19.9719C18.1261 19.8313 18.4457 19.7291 18.4457 19.7291C18.4457 19.7291 18.1055 19.7663 17.5113 19.7866C16.9238 19.8035 16.0647 19.8089 15.1226 19.6074Z" fill="white"/>
</g>
</g>
<defs>
<clipPath id="clip0_1_215">
<rect width="24" height="24" fill="white" transform="translate(1.52588e-05 0.666382)"/>
</clipPath>
</defs>
</svg>

<svg xmlns="http://www.w3.org/2000/svg" width="24" height="25" fill="none" viewBox="0 0 24 25"><g clip-path="url(#a)"><mask id="b" width="24" height="25" x="0" y="0" maskUnits="userSpaceOnUse" style="mask-type:luminance"><path fill="#fff" d="M24 .666H0v24h24z"/></mask><g fill="#fff" mask="url(#b)"><path d="M9.394 23.806c-.368-.02-.907-.061-1.473-.236-.567-.17-1.108-.53-1.223-1.02-.142-.48.018-1.116.298-1.724l.236-.48a3.3 3.3 0 0 0 .245-.754 3.1 3.1 0 0 0-.117-1.622 4.7 4.7 0 0 0-1.025-1.648c-.151-.785-.733-1.584-1.654-2.134-1.555-.93-3.483-.802-4.309.287-.825 1.089-.233 2.726 1.321 3.657.897.536 1.919.72 2.78.57q.159.114.279.242c.14.144.239.302.293.516.029.105.035.224.032.352l-.077.62c-.047.443-.04.89.024 1.332.075.448.225.91.518 1.304.27.372.658.664 1.114.841.411.155.805.207 1.152.222.697.02 1.235-.09 1.604-.167.37-.082.573-.143.573-.143s-.218.004-.59-.015" opacity="0.4"/><path d="M23.411 15.016c-.367-.035-.903-.098-1.46-.295-.557-.193-1.08-.574-1.17-1.067-.118-.485.073-1.116.383-1.71l.26-.47q.188-.359.282-.745a3.1 3.1 0 0 0-.036-1.624 4.6 4.6 0 0 0-.94-1.686c-.113-.791-.655-1.612-1.546-2.198-1.506-.99-3.44-.939-4.318.118-.88 1.054-.37 2.713 1.136 3.704.87.572 1.882.796 2.749.68q.151.12.265.252c.133.15.225.314.268.527.024.106.024.225.016.353l-.11.616c-.07.44-.084.887-.042 1.331.051.451.177.918.451 1.324.251.382.624.69 1.071.883.358.15.744.241 1.14.267a6.6 6.6 0 0 0 1.61-.101c.372-.068.58-.121.58-.121s-.217-.006-.589-.038" opacity="0.6"/><path d="M15.123 19.607c-.466-.104-.948-.267-1.354-.52a2.24 2.24 0 0 1-.899-1.003c-.364-.814-.217-1.904.127-2.937l.294-.809a4.6 4.6 0 0 0-.103-3.49A6.4 6.4 0 0 0 12 9.057c.066-1.537-1.034-3.22-2.95-4.234-2.567-1.358-5.624-1-6.828.797s-.1 4.354 2.466 5.712c1.722.912 3.664 1.051 5.12.5q.18.159.326.335c.25.29.418.619.497 1.016.044.198.047.414.038.64-.032.32-.068.597-.093.965a8 8 0 0 0 .099 2.036c.137.68.386 1.37.848 1.945a3.76 3.76 0 0 0 1.72 1.214 5.7 5.7 0 0 0 1.784.298c1.088.01 1.933-.177 2.516-.31.583-.14.903-.243.903-.243s-.34.037-.935.058c-.587.017-1.446.022-2.388-.18"/></g></g><defs><clipPath id="a"><path fill="#fff" d="M0 .666h24v24H0z"/></clipPath></defs></svg>
